X: 5
T: Arra Mountains
R: slip jig
M: 9/8
L: 1/8
K: Ador
EAA EAB cBc|EAA EAF GED|EAA EAB c2d|efe e/f/ge dBG :|
Aaa gef gfg|eaa ged Bcd|eaa gef g2e|d^cd e/f/ge dBG|
Aaa gef gfg|eaa ged Bcd|e/f/ge f/g/af g2e|d^cd e/f/ge dBG||


Tune 1901	Setting 15325

